X: 244
T: Patriot Sunday (reel)
C: BB 11/06
N: 162187
L: 1/8
M: 4/4
R: reel
Q: 380
K: D
FE | "D"DA,DE F3G | "D"Ad ~d2 BAFD | "C"E=CEG =c3B | "Am"A=c c2 AGE=C |
"D"DFAc d3e | "D"fddA FGAF | "C"G=c c2 "G"BGFG | "D"FA "A"GE "D"D2 :|
AG | "D"FddA "G"Bdeg | "D"fdad fdBA | "C"E=ccB cdeg | "Am7"agab ageg |
"D"fddA "G"Bdeg | "D"f2 af bfaf | "C"e=c (3cBc "G"Bdeg | "D"fa "A"ge "D"d2 :|
%%%%%%%%%%%%%%%%%%%%%%%%%%%%%%%
